public/img/routes/cv.svg

<?xml version="1.0" encoding="UTF-8"?>
<svg width="500px" height="500px" viewBox="0 0 500 500" version="1.1" xmlns="http://www.w3.org/2000/svg" xmlns:xlink="http://www.w3.org/1999/xlink">
    <!-- Generator: Sketch 46.2 (44496) - http://www.bohemiancoding.com/sketch -->
    <title>web/routes/cv</title>
    <desc>Created with Sketch.</desc>
    <defs>
        <path d="M60,252.95858 C60,213.017552 65.9171006,177.391675 77.7514793,146.079882 C89.585858,114.768088 105.857885,88.2644083 126.568047,66.5680473 C147.27821,44.8716864 171.68625,28.3531139 199.792899,17.0118343 C227.899549,5.67055473 257.978143,0 290.029586,0 C321.09483,0 348.584693,6.28691938 372.5,18.8609467 C396.415307,31.4349741 416.508794,45.6113609 432.781065,61.3905325 L372.869822,128.698225 C361.528543,118.343143 349.20125,109.960584 335.887574,103.550296 C322.573898,97.1400074 307.288055,93.9349112 290.029586,93.9349112 C272.771117,93.9349112 256.992182,97.5098262 242.692308,104.659763 C228.392433,111.8097 215.941868,122.041354 205.340237,135.35503 C194.738606,148.668706 186.47932,164.940732 180.56213,184.171598 C174.644941,203.402463 171.686391,225.098499 171.686391,249.260355 C171.686391,299.063365 183.0275,337.647792 205.710059,365.014793 C228.392618,392.381794 257.978121,406.065089 294.467456,406.065089 C311.725925,406.065089 327.381587,402.120355 341.434911,394.230769 C355.488236,386.341183 368.431893,375.986257 380.266272,363.16568 L440.177515,428.994083 C399.743388,476.331598 348.954941,500 287.810651,500 C256.745407,500 227.40645,494.699264 199.792899,484.097633 C172.179349,473.496002 148.017855,457.84034 127.307692,437.130178 C106.59753,416.420015 90.20223,390.655973 78.1213018,359.837278 C66.0403735,329.018584 60,293.392707 60,252.95858 Z" id="path-1"></path>
        <filter x="-0.5%" y="-0.4%" width="101.1%" height="100.8%" filterUnits="objectBoundingBox" id="filter-2">
            <feGaussianBlur stdDeviation="1.5" in="SourceAlpha" result="shadowBlurInner1"></feGaussianBlur>
            <feOffset dx="0" dy="1" in="shadowBlurInner1" result="shadowOffsetInner1"></feOffset>
            <feComposite in="shadowOffsetInner1" in2="SourceAlpha" operator="arithmetic" k2="-1" k3="1" result="shadowInnerInner1"></feComposite>
            <feColorMatrix values="0 0 0 0 0   0 0 0 0 0   0 0 0 0 0  0 0 0 0.5 0" type="matrix" in="shadowInnerInner1"></feColorMatrix>
        </filter>
    </defs>
    <g id="Web" stroke="none" stroke-width="1" fill="none" fill-rule="evenodd">
        <g id="cv">
            <g id="C">
                <use fill="#000000" fill-rule="evenodd" xlink:href="#path-1"></use>
                <use fill="black" fill-opacity="1" filter="url(#filter-2)" xlink:href="#path-1"></use>
            </g>
        </g>
    </g>
</svg>

<svg width="500" height="500" viewBox="0 0 500 500" xmlns="http://www.w3.org/2000/svg" xmlns:xlink="http://www.w3.org/1999/xlink"><title>web/routes/cv</title><defs><path d="M60 252.959c0-39.941 5.917-75.567 17.751-106.88 11.835-31.31 28.107-57.815 48.817-79.511 20.71-21.696 45.118-38.215 73.225-49.556C227.9 5.67 257.978 0 290.03 0c31.065 0 58.555 6.287 82.47 18.86 23.915 12.575 44.009 26.751 60.281 42.53l-59.911 67.308c-11.341-10.355-23.669-18.737-36.982-25.148-13.314-6.41-28.6-9.615-45.858-9.615-17.259 0-33.038 3.575-47.338 10.725-14.3 7.15-26.75 17.381-37.352 30.695-10.601 13.314-18.86 29.586-24.778 48.817-5.917 19.23-8.876 40.926-8.876 65.088 0 49.803 11.341 88.388 34.024 115.755 22.683 27.367 52.268 41.05 88.757 41.05 17.259 0 32.915-3.945 46.968-11.834 14.053-7.89 26.997-18.245 38.831-31.065l59.912 65.828C399.743 476.332 348.955 500 287.81 500c-31.066 0-60.405-5.3-88.018-15.902-27.614-10.602-51.775-26.258-72.485-46.968-20.71-20.71-37.106-46.474-49.187-77.293C66.041 329.02 60 293.393 60 252.96z" id="a"/><filter x="-.5%" y="-.4%" width="101.1%" height="100.8%" filterUnits="objectBoundingBox" id="b"><feGaussianBlur stdDeviation="1.5" in="SourceAlpha" result="shadowBlurInner1"/><feOffset dy="1" in="shadowBlurInner1" result="shadowOffsetInner1"/><feComposite in="shadowOffsetInner1" in2="SourceAlpha" operator="arithmetic" k2="-1" k3="1" result="shadowInnerInner1"/><feColorMatrix values="0 0 0 0 0 0 0 0 0 0 0 0 0 0 0 0 0 0 0.5 0" in="shadowInnerInner1"/></filter></defs><g fill-rule="evenodd"><use xlink:href="#a"/><use filter="url(#b)" xlink:href="#a"/></g></svg>
